X:1
T:Seguir' una ch'odia
T:Luca Marenzio
T:Source : Il quinto libro delle Villanelle a tre voci---Venetia---Herede di G.Scotto---1587. Editor : André Vierendeels 05/06/17).
T:Notes : Original clefs : C1, C2, F4 Editorial accidentals above the staff Music collected by Attilio Gualtieri
T:Seguir' una ch'odia
T:©
T:©
C:Luca Marenzio
Z:©
%%score [ 1 2 3 ]
L:1/8
Q:1/4=120
M:4/4
K:C
V:1 treble nm="Soprano 1" snm="S 1"
V:2 treble nm="Soprano 2" snm="S 2"
V:3 bass nm="Bass" snm="B"
V:1
"^1)" G4 G4- | G2 c4 B2 | A2 G2 A4 | A2 B4 B2 | c4 d3 d | e3 d c2 c2 | B4 A4 :: z8 | e8- | e4 d4 | %10
w: Se- quir'|_ u- na|ch'o- dia'e sprez-|za, e che|v'al- tie- ra|sol di sua bel-|lez- za,||e|_ pur|
w: A- mar'|_ u- na|ch'è sle- a-|le, e ch'è|ca- gion' al|mon- do d'o- gni|ma- le,||e|_ pur|
 c8 | A4 c4- | c4 B4 | A8 | G4 z2 AB | c2 d2 e4- | e2 c2 B4 | A8 :| %18
w: do-|glia da|_ mo-|ri-|re, ne lo|pos- so piu|_ sof- fri-|re.|
w: trop-|po gran|_ pec-|ca-|to, da non|es- ser per-|* do- na-|to.|
V:2
"^2)""^1)" E4 E4- | E2 E4 G2 | ^F2 G2 F4 | ^F2 G4 ^G2 | A4 B3 B | c3 B A2 A2 | ^G4 A4 :: c8- | %8
w: Se- guir'|_ u- na|ch'o- dia'e sprez-|za, e che|v'al- tie- ra|sol di sua bel-|lez- za,|e|
w: Lo- dar|_ u- na|ch'è cru- de-|le, e ch'è|pie- na di|to- sco'as- sen- tio'e|fe- le,|e|
 c4 B4 | A8 | G4 A4- | A4 G4 | ^F4 G4- | G2 ^FE F4 | G2 BA G2 F2 | E6 ^F2 | ^G2 A4 G2 | A8 :| %18
w: _ pur|do-|glia da|_ mo-|ri- *||re, ne lo pos- so|piu sof-|fri- * *|re.|
w: _ pur|u-|na gran|_ bu-|||gia, de mag- gior ch'al|mon- do|si- * *|a.|
V:3
"^3)""^1)""^4)" C,4 C,4- | C,2 A,,4 G,,2 | D,2 E,2 D,4 | D,2 G,4 E,2 | A,4 G,3 G, | %5
w: Se- guir|_ u- na|ch'o- dia'e sprez-|za, e che|v'al- tie- ra|
w: A tal|_ che si-|gno- ra bel-|la, poi che|se- te sle-|
 C,3 G,, A,,2 A,,2 | E,4 A,,4 :: A,8- | A,4 G,4 | F,8 | E,4 F,4- | F,4 E,4 | D,8- | D,8 | %14
w: sol di sua bel-|lez- za,|e|_ pur|do-|glia da|_ mo-|ri-||
w: al cru- de- l'e|fel- la,|cias-|* cun|pur|d'am- bi|_ duo|no-||
 G,,2 G,F, E,2 D,2 | C,6 D,2 | E,8 | A,,8 :| %18
w: re, ne lo pos- so|piu sof-|fri-|re.|
w: i, ten- di'a far i|fat- ti|suo-|i.|

